z-union/img/icons/tab-icons/tab-icon-11.svg

<svg width="54" height="63" viewBox="0 0 54 63" fill="none" xmlns="http://www.w3.org/2000/svg">
<path d="M28.0925 3.39355H25.9077V58.3452H28.0925V3.39355Z" fill="#232321"/>
<path d="M26.5094 2.43902L3.99609 13.8496L4.98382 15.7984L27.4971 4.38782L26.5094 2.43902Z" fill="#232321"/>
<path d="M4.97616 46.4306L4.02295 48.3965L26.5271 59.3084L27.4803 57.3426L4.97616 46.4306Z" fill="#232321"/>
<path d="M28.5126 2.42056L27.5244 4.36914L50.0352 15.7848L51.0233 13.8362L28.5126 2.42056Z" fill="#232321"/>
<path d="M50.0119 46.4273L27.5103 57.3418L28.4637 59.3074L50.9654 48.393L50.0119 46.4273Z" fill="#232321"/>
<path d="M27.0107 61.7372C28.8838 61.7372 30.4023 60.2188 30.4023 58.3456C30.4023 56.4725 28.8838 54.9541 27.0107 54.9541C25.1376 54.9541 23.6191 56.4725 23.6191 58.3456C23.6191 60.2188 25.1376 61.7372 27.0107 61.7372Z" fill="#151514"/>
<path d="M27.0103 62.84C26.9478 62.84 26.9062 62.84 26.8438 62.84C25.637 62.7984 24.5342 62.299 23.7227 61.4043C22.9112 60.5304 22.4743 59.386 22.5159 58.1792C22.5575 56.9724 23.0569 55.8696 23.9516 55.0581C24.8255 54.2466 25.9699 53.8305 27.1767 53.8513C28.3835 53.8929 29.4863 54.3923 30.2978 55.287C31.1093 56.1609 31.5462 57.3053 31.5046 58.5121C31.4006 60.9257 29.4031 62.84 27.0103 62.84ZM27.0103 56.0569C26.4277 56.0569 25.8867 56.265 25.4497 56.6811C24.992 57.0972 24.7423 57.659 24.7215 58.2832C24.7007 58.8866 24.9087 59.4901 25.3249 59.927C25.741 60.3848 26.3028 60.6344 26.927 60.6552C28.2171 60.6969 29.2574 59.7189 29.299 58.4497C29.3198 57.8463 29.1118 57.2429 28.6956 56.8059C28.2795 56.3482 27.7177 56.0985 27.0935 56.0777C27.0727 56.0569 27.0311 56.0569 27.0103 56.0569Z" fill="#232321"/>
<path d="M27.0107 7.88762C28.8838 7.88762 30.4023 6.36918 30.4023 4.49607C30.4023 2.62296 28.8838 1.10449 27.0107 1.10449C25.1376 1.10449 23.6191 2.62296 23.6191 4.49607C23.6191 6.36918 25.1376 7.88762 27.0107 7.88762Z" fill="#151514"/>
<path d="M27.0103 8.9914C26.9478 8.9914 26.9062 8.9914 26.8438 8.9914C25.637 8.94979 24.5342 8.45044 23.7227 7.55573C22.9112 6.68183 22.4743 5.53743 22.5159 4.33062C22.5575 3.1238 23.0569 2.02102 23.9516 1.20954C24.8255 0.398063 25.9699 -0.0388918 27.1767 0.00272257C28.3835 0.0443369 29.4863 0.543714 30.2978 1.43842C31.1093 2.31232 31.5462 3.45672 31.5046 4.66354C31.463 5.87035 30.9636 6.97313 30.0689 7.78461C29.2366 8.55448 28.1546 8.9914 27.0103 8.9914ZM27.0103 2.20828C26.4277 2.20828 25.8867 2.41636 25.4497 2.8325C24.992 3.24864 24.7423 3.81044 24.7215 4.43466C24.7007 5.03807 24.9087 5.64146 25.3249 6.07841C25.741 6.53617 26.3028 6.78587 26.927 6.80667C27.5512 6.82748 28.1338 6.61939 28.5708 6.20325C29.0285 5.78711 29.2782 5.2253 29.299 4.60109C29.3198 3.99768 29.1118 3.39429 28.6956 2.95734C28.2795 2.49958 27.7177 2.24988 27.0935 2.22907C27.0727 2.20827 27.0311 2.20828 27.0103 2.20828Z" fill="#232321"/>
<path d="M49.503 29.7783H4.49707V31.9631H49.503V29.7783Z" fill="#65A85A"/>
<path d="M50.5847 14.8164H48.3999V46.9427H50.5847V14.8164Z" fill="#65A85A"/>
<path d="M5.5788 14.8164H3.39404V46.9427H5.5788V14.8164Z" fill="#65A85A"/>
<path d="M4.49753 18.2089C6.37064 18.2089 7.88909 16.6904 7.88909 14.8173C7.88909 12.9442 6.37064 11.4258 4.49753 11.4258C2.62441 11.4258 1.10596 12.9442 1.10596 14.8173C1.10596 16.6904 2.62441 18.2089 4.49753 18.2089Z" fill="#151514"/>
<path d="M4.49707 19.3117C4.43465 19.3117 4.39303 19.3117 4.33061 19.3117C3.1238 19.2701 2.02102 18.7707 1.20954 17.876C0.398059 16.9813 -0.0388917 15.8577 0.00272259 14.6509C0.0443369 13.4441 0.543709 12.3413 1.43842 11.5298C2.31232 10.7183 3.45671 10.3022 4.66353 10.323C7.13958 10.4062 9.07465 12.5078 8.99142 14.963C8.9498 16.1698 8.45043 17.2726 7.55572 18.0841C6.70263 18.8748 5.62066 19.3117 4.49707 19.3117ZM4.47626 12.5286C3.89366 12.5286 3.35268 12.7366 2.91573 13.1528C2.45797 13.5689 2.20828 14.1307 2.18747 14.7549C2.16667 15.3584 2.37474 15.9618 2.79088 16.3987C3.20703 16.8565 3.76882 17.1062 4.39303 17.127C4.99644 17.1478 5.59985 16.9397 6.0368 16.5236C6.49456 16.1074 6.74424 15.5456 6.76505 14.9214C6.80667 13.6522 5.82873 12.591 4.55949 12.5494C4.53868 12.5286 4.51788 12.5286 4.47626 12.5286Z" fill="#65A85A"/>
<path d="M4.49753 50.3359C6.37064 50.3359 7.88909 48.8174 7.88909 46.9443C7.88909 45.0712 6.37064 43.5527 4.49753 43.5527C2.62441 43.5527 1.10596 45.0712 1.10596 46.9443C1.10596 48.8174 2.62441 50.3359 4.49753 50.3359Z" fill="#151514"/>
<path d="M4.49707 51.4179C4.43465 51.4179 4.39303 51.4179 4.33061 51.4179C3.1238 51.3763 2.02102 50.8769 1.20954 49.9822C0.398059 49.1083 -0.0388917 47.9639 0.00272259 46.7571C0.0859512 44.2811 2.18747 42.3668 4.64272 42.4292C7.11877 42.5124 9.05384 44.614 8.97061 47.0692C8.88738 49.5245 6.88989 51.4179 4.49707 51.4179ZM4.49707 44.6348C3.26945 44.6348 2.2499 45.6127 2.20828 46.8403C2.18747 47.4437 2.39555 48.0472 2.81169 48.4841C3.22783 48.9419 3.78963 49.1915 4.41384 49.2123C5.03806 49.2331 5.62066 49.0251 6.05761 48.6089C6.51537 48.1928 6.76505 47.631 6.78586 47.0068C6.82747 45.7376 5.84954 44.6764 4.5803 44.6348C4.53868 44.6348 4.51788 44.6348 4.49707 44.6348Z" fill="#65A85A"/>
<path d="M49.5029 18.2089C51.376 18.2089 52.8945 16.6904 52.8945 14.8173C52.8945 12.9442 51.376 11.4258 49.5029 11.4258C47.6298 11.4258 46.1113 12.9442 46.1113 14.8173C46.1113 16.6904 47.6298 18.2089 49.5029 18.2089Z" fill="#151514"/>
<path d="M49.5029 19.3117C49.4405 19.3117 49.3989 19.3117 49.3365 19.3117C48.1297 19.2701 47.0269 18.7708 46.2154 17.876C45.4039 17.0021 44.967 15.8577 45.0086 14.6509C45.0502 13.4441 45.5496 12.3413 46.4443 11.5299C47.3182 10.7184 48.4626 10.2814 49.6694 10.323C50.8762 10.3646 51.979 10.864 52.7905 11.7587C53.6019 12.6326 54.0389 13.777 53.9973 14.9839C53.9557 16.1907 53.4563 17.2934 52.5616 18.1049C51.7293 18.8748 50.6473 19.3117 49.5029 19.3117ZM49.5029 12.5286C48.9203 12.5286 48.3793 12.7367 47.9424 13.1528C47.4846 13.569 47.235 14.1308 47.2141 14.755C47.1933 15.3584 47.4014 15.9618 47.8176 16.3988C48.2337 16.8565 48.7955 17.1062 49.4197 17.127C50.0023 17.1478 50.6265 16.9397 51.0635 16.5236C51.5212 16.1075 51.7709 15.5456 51.7917 14.9214C51.8125 14.318 51.6045 13.7146 51.1883 13.2777C50.7722 12.8199 50.2104 12.5702 49.5862 12.5494C49.5654 12.5286 49.5237 12.5286 49.5029 12.5286Z" fill="#65A85A"/>
<path d="M49.5029 34.2724C51.376 34.2724 52.8945 32.7539 52.8945 30.8808C52.8945 29.0077 51.376 27.4893 49.5029 27.4893C47.6298 27.4893 46.1113 29.0077 46.1113 30.8808C46.1113 32.7539 47.6298 34.2724 49.5029 34.2724Z" fill="#151514"/>
<path d="M49.5029 35.3547C49.4405 35.3547 49.3989 35.3547 49.3365 35.3547C48.1297 35.3131 47.0269 34.8137 46.2154 33.919C45.4039 33.0451 44.967 31.9007 45.0086 30.6939C45.0502 29.4871 45.5496 28.3843 46.4443 27.5728C47.3182 26.7613 48.4626 26.3244 49.6694 26.366C50.8762 26.4076 51.979 26.907 52.7905 27.8017C53.6019 28.6756 54.0389 29.82 53.9973 31.0268C53.8932 33.4613 51.8958 35.3547 49.5029 35.3547ZM49.5029 28.5924C48.9203 28.5924 48.3793 28.8004 47.9424 29.2166C47.4846 29.6327 47.235 30.1945 47.2141 30.8187C47.1933 31.4221 47.4014 32.0255 47.8176 32.4625C48.2337 32.9202 48.7955 33.1699 49.4197 33.1908C50.7097 33.2532 51.7501 32.2544 51.7917 30.9852C51.8125 30.3818 51.6045 29.7784 51.1883 29.3414C50.7722 28.8837 50.2104 28.634 49.5862 28.6132C49.5654 28.5924 49.5237 28.5924 49.5029 28.5924Z" fill="#65A85A"/>
<path d="M27.0107 34.2724C28.8838 34.2724 30.4023 32.7539 30.4023 30.8808C30.4023 29.0077 28.8838 27.4893 27.0107 27.4893C25.1376 27.4893 23.6191 29.0077 23.6191 30.8808C23.6191 32.7539 25.1376 34.2724 27.0107 34.2724Z" fill="#151514"/>
<path d="M27.0103 35.3547C26.9478 35.3547 26.9062 35.3547 26.8438 35.3547C25.637 35.3131 24.5342 34.8137 23.7227 33.919C22.9112 33.0451 22.4743 31.9007 22.5159 30.6939C22.5575 29.4871 23.0569 28.3843 23.9516 27.5728C24.8255 26.7613 25.9699 26.3244 27.1767 26.366C28.3835 26.4076 29.4863 26.907 30.2978 27.8017C31.1093 28.6756 31.5462 29.82 31.5046 31.0268C31.4006 33.4613 29.4031 35.3547 27.0103 35.3547ZM27.0103 28.5924C26.4277 28.5924 25.8867 28.8004 25.4497 29.2166C24.992 29.6327 24.7423 30.1945 24.7215 30.8187C24.7007 31.4221 24.9087 32.0255 25.3249 32.4625C25.741 32.9202 26.3028 33.1699 26.927 33.1908C28.2171 33.2532 29.2574 32.2544 29.299 30.9852C29.3198 30.3818 29.1118 29.7784 28.6956 29.3414C28.2795 28.8837 27.7177 28.634 27.0935 28.6132C27.0727 28.5924 27.0311 28.5924 27.0103 28.5924Z" fill="#65A85A"/>
<path d="M4.49753 34.2724C6.37064 34.2724 7.88909 32.7539 7.88909 30.8808C7.88909 29.0077 6.37064 27.4893 4.49753 27.4893C2.62441 27.4893 1.10596 29.0077 1.10596 30.8808C1.10596 32.7539 2.62441 34.2724 4.49753 34.2724Z" fill="#151514"/>
<path d="M4.49707 35.3537C4.43465 35.3537 4.39303 35.3537 4.33061 35.3537C3.1238 35.3121 2.02102 34.8127 1.20954 33.918C0.398059 33.0441 -0.0388917 31.8997 0.00272259 30.6929C0.0443369 29.4861 0.543709 28.3833 1.43842 27.5718C2.31232 26.7603 3.45671 26.3442 4.66353 26.365C7.13958 26.4482 9.07465 28.5289 8.99142 31.005C8.88738 33.4602 6.88989 35.3537 4.49707 35.3537ZM4.47626 28.5914C3.89366 28.5914 3.35268 28.7994 2.91573 29.2156C2.45797 29.6317 2.20828 30.1935 2.18747 30.8177C2.16667 31.4211 2.37474 32.0245 2.79088 32.4615C3.20703 32.9192 3.76882 33.1689 4.39303 33.1897C5.66227 33.2522 6.72344 32.2534 6.76505 30.9842C6.80667 29.715 5.82873 28.6538 4.55949 28.6122C4.53868 28.5914 4.51788 28.5914 4.47626 28.5914Z" fill="#65A85A"/>
<path d="M49.5029 50.3359C51.376 50.3359 52.8945 48.8174 52.8945 46.9443C52.8945 45.0712 51.376 43.5527 49.5029 43.5527C47.6298 43.5527 46.1113 45.0712 46.1113 46.9443C46.1113 48.8174 47.6298 50.3359 49.5029 50.3359Z" fill="#151514"/>
<path d="M49.5029 51.4179C49.4405 51.4179 49.3989 51.4179 49.3365 51.4179C48.1297 51.3763 47.0269 50.8769 46.2154 49.9822C45.4039 49.1083 44.967 47.9639 45.0086 46.7571C45.0918 44.2811 47.1933 42.3668 49.6486 42.4292C50.8554 42.4708 51.9582 42.9702 52.7697 43.8649C53.5811 44.7388 54.0181 45.8832 53.9765 47.09C53.8932 49.5245 51.8958 51.4179 49.5029 51.4179ZM49.5029 44.6348C48.2753 44.6348 47.2558 45.6127 47.2141 46.8403C47.1933 47.4437 47.4014 48.0472 47.8176 48.4841C48.2337 48.9419 48.7955 49.1915 49.4197 49.2123C50.0439 49.2331 50.6265 49.0251 51.0635 48.6089C51.5212 48.1928 51.7709 47.631 51.7917 47.0068C51.8125 46.4034 51.6045 45.8 51.1883 45.363C50.7722 44.9053 50.2104 44.6556 49.5862 44.6348C49.5654 44.6348 49.5237 44.6348 49.5029 44.6348Z" fill="#65A85A"/>
</svg>

<svg width="54" height="63" fill="none" xmlns="http://www.w3.org/2000/svg"><path d="M28.093 3.394h-2.185v54.951h2.184V3.394z" fill="#232321"/><path d="M26.51 2.439L3.995 13.849l.988 1.95L27.497 4.387l-.988-1.949zM4.976 46.43l-.953 1.967 22.504 10.911.953-1.965L4.976 46.43zM28.513 2.42l-.989 1.95 22.511 11.415.988-1.949-22.51-11.415zm21.499 44.007L27.51 57.342l.954 1.965 22.501-10.914-.953-1.966z" fill="#232321"/><path d="M27.01 61.737a3.392 3.392 0 100-6.783 3.392 3.392 0 000 6.783z" fill="#151514"/><path d="M27.01 62.84h-.166a4.36 4.36 0 01-3.121-1.436 4.488 4.488 0 01-1.207-3.225 4.36 4.36 0 011.436-3.12c.873-.812 2.018-1.228 3.225-1.208a4.36 4.36 0 013.12 1.436 4.488 4.488 0 011.208 3.225c-.104 2.414-2.102 4.328-4.495 4.328zm0-6.783a2.22 2.22 0 00-1.56.624 2.224 2.224 0 00-.729 1.602c-.02.604.188 1.207.604 1.644.416.458.978.707 1.602.728a2.271 2.271 0 002.372-2.205 2.274 2.274 0 00-.603-1.644 2.224 2.224 0 00-1.603-.728c-.02-.021-.062-.021-.083-.021z" fill="#232321"/><path d="M27.01 7.888a3.392 3.392 0 100-6.784 3.392 3.392 0 000 6.784z" fill="#151514"/><path d="M27.01 8.991h-.166a4.36 4.36 0 01-3.121-1.435 4.488 4.488 0 01-1.207-3.225 4.36 4.36 0 011.436-3.121A4.488 4.488 0 0127.177.003a4.36 4.36 0 013.12 1.435 4.488 4.488 0 011.208 3.226 4.36 4.36 0 01-1.436 3.12 4.494 4.494 0 01-3.059 1.207zm0-6.783a2.22 2.22 0 00-1.56.624 2.224 2.224 0 00-.729 1.603c-.02.603.188 1.206.604 1.643.416.458.978.708 1.602.729.624.02 1.207-.188 1.644-.604.457-.416.707-.978.728-1.602a2.273 2.273 0 00-.603-1.644 2.224 2.224 0 00-1.603-.728c-.02-.02-.062-.02-.083-.02z" fill="#232321"/><path d="M49.503 29.778H4.497v2.185h45.006v-2.185z" fill="#65A85A"/><path d="M50.585 14.816H48.4v32.127h2.185V14.816zm-45.006 0H3.394v32.127h2.185V14.816z" fill="#65A85A"/><path d="M4.498 18.209a3.392 3.392 0 100-6.783 3.392 3.392 0 000 6.783z" fill="#151514"/><path d="M4.497 19.312h-.166a4.36 4.36 0 01-3.121-1.436c-.812-.895-1.25-2.018-1.207-3.225a4.36 4.36 0 011.435-3.121c.874-.812 2.019-1.228 3.226-1.207 2.476.083 4.41 2.185 4.327 4.64a4.36 4.36 0 01-1.435 3.121c-.853.79-1.935 1.228-3.059 1.228zm-.02-6.783a2.22 2.22 0 00-1.561.624 2.224 2.224 0 00-.729 1.602 2.28 2.28 0 00.604 1.644c.416.457.978.707 1.602.728a2.274 2.274 0 001.644-.603c.458-.417.707-.978.728-1.603a2.284 2.284 0 00-2.206-2.372c-.02-.02-.041-.02-.083-.02z" fill="#65A85A"/><path d="M4.498 50.336a3.392 3.392 0 100-6.783 3.392 3.392 0 000 6.783z" fill="#151514"/><path d="M4.497 51.418h-.166a4.36 4.36 0 01-3.121-1.436 4.488 4.488 0 01-1.207-3.225c.083-2.476 2.184-4.39 4.64-4.328 2.476.083 4.41 2.185 4.328 4.64a4.481 4.481 0 01-4.474 4.349zm0-6.783a2.293 2.293 0 00-2.289 2.205c-.02.604.188 1.207.604 1.644.416.458.978.707 1.602.728.624.021 1.207-.187 1.644-.603.457-.416.707-.978.728-1.602a2.284 2.284 0 00-2.206-2.372h-.083z" fill="#65A85A"/><path d="M49.503 18.209a3.392 3.392 0 100-6.783 3.392 3.392 0 000 6.783z" fill="#151514"/><path d="M49.503 19.312h-.166a4.36 4.36 0 01-3.122-1.436 4.488 4.488 0 01-1.206-3.225 4.36 4.36 0 011.435-3.121 4.488 4.488 0 013.225-1.207 4.36 4.36 0 013.122 1.436 4.489 4.489 0 011.206 3.225 4.36 4.36 0 01-1.435 3.12 4.494 4.494 0 01-3.06 1.208zm0-6.783a2.22 2.22 0 00-1.56.624 2.225 2.225 0 00-.729 1.602c-.02.603.187 1.207.604 1.644.416.457.977.707 1.602.728.582.02 1.206-.187 1.643-.603.458-.416.708-.978.729-1.603a2.273 2.273 0 00-.604-1.643 2.224 2.224 0 00-1.602-.729c-.02-.02-.062-.02-.083-.02z" fill="#65A85A"/><path d="M49.503 34.272a3.392 3.392 0 100-6.783 3.392 3.392 0 000 6.783z" fill="#151514"/><path d="M49.503 35.355h-.166a4.36 4.36 0 01-3.122-1.436 4.488 4.488 0 01-1.206-3.225 4.36 4.36 0 011.435-3.121 4.488 4.488 0 013.225-1.207 4.36 4.36 0 013.122 1.436 4.489 4.489 0 011.206 3.225 4.51 4.51 0 01-4.494 4.328zm0-6.763a2.22 2.22 0 00-1.56.625 2.224 2.224 0 00-.729 1.602c-.02.603.187 1.207.604 1.643.416.458.977.708 1.602.729 1.29.062 2.33-.937 2.372-2.206a2.274 2.274 0 00-.604-1.644 2.224 2.224 0 00-1.602-.728c-.02-.02-.062-.02-.083-.02z" fill="#65A85A"/><path d="M27.01 34.272a3.392 3.392 0 100-6.783 3.392 3.392 0 000 6.783z" fill="#151514"/><path d="M27.01 35.355h-.166a4.36 4.36 0 01-3.121-1.436 4.488 4.488 0 01-1.207-3.225 4.36 4.36 0 011.436-3.121 4.488 4.488 0 013.225-1.207 4.36 4.36 0 013.12 1.436 4.488 4.488 0 011.208 3.225 4.51 4.51 0 01-4.495 4.328zm0-6.763a2.22 2.22 0 00-1.56.625 2.224 2.224 0 00-.729 1.602c-.02.603.188 1.207.604 1.643.416.458.978.708 1.602.729 1.29.062 2.33-.937 2.372-2.206a2.274 2.274 0 00-.603-1.644 2.224 2.224 0 00-1.603-.728c-.02-.02-.062-.02-.083-.02z" fill="#65A85A"/><path d="M4.498 34.272a3.392 3.392 0 100-6.783 3.392 3.392 0 000 6.783z" fill="#151514"/><path d="M4.497 35.354h-.166a4.36 4.36 0 01-3.121-1.436 4.488 4.488 0 01-1.207-3.225 4.36 4.36 0 011.435-3.121c.874-.812 2.019-1.228 3.226-1.207a4.487 4.487 0 014.327 4.64c-.104 2.455-2.101 4.349-4.494 4.349zm-.02-6.763a2.22 2.22 0 00-1.561.625 2.224 2.224 0 00-.729 1.602c-.02.603.188 1.207.604 1.643.416.458.978.708 1.602.729a2.27 2.27 0 002.372-2.206 2.284 2.284 0 00-2.206-2.372c-.02-.02-.041-.02-.083-.02z" fill="#65A85A"/><path d="M49.503 50.336a3.392 3.392 0 100-6.783 3.392 3.392 0 000 6.783z" fill="#151514"/><path d="M49.503 51.418h-.166a4.36 4.36 0 01-3.122-1.436 4.488 4.488 0 01-1.206-3.225c.083-2.476 2.184-4.39 4.64-4.328a4.36 4.36 0 013.12 1.436 4.489 4.489 0 011.208 3.225 4.478 4.478 0 01-4.474 4.328zm0-6.783a2.293 2.293 0 00-2.289 2.205c-.02.604.187 1.207.604 1.644.416.458.977.707 1.602.728a2.24 2.24 0 001.643-.603c.458-.416.708-.978.729-1.602a2.274 2.274 0 00-.604-1.644 2.224 2.224 0 00-1.602-.728h-.083z" fill="#65A85A"/></svg>
